src/icons/Ticket.svg

<svg width="24" height="24" viewBox="0 0 24 24" fill="none" xmlns="http://www.w3.org/2000/svg">
<path d="M11.0049 21C11.0049 20.1715 10.3333 19.5 9.50488 19.5C8.67646 19.5 8.00488 20.1715 8.00488 21H3.00488C2.4526 21 2.00488 20.5522 2.00488 20V4C2.00488 3.44772 2.4526 3 3.00488 3H8.00488C8.00488 3.82843 8.67646 4.5 9.50488 4.5C10.3333 4.5 11.0049 3.82843 11.0049 3H21.0049C21.5572 3 22.0049 3.44772 22.0049 4V9.5C20.6242 9.5 19.5049 10.6193 19.5049 12C19.5049 13.3807 20.6242 14.5 22.0049 14.5V20C22.0049 20.5522 21.5572 21 21.0049 21H11.0049ZM9.50488 10.5C10.3333 10.5 11.0049 9.82843 11.0049 9C11.0049 8.17158 10.3333 7.5 9.50488 7.5C8.67646 7.5 8.00488 8.17158 8.00488 9C8.00488 9.82843 8.67646 10.5 9.50488 10.5ZM9.50488 16.5C10.3333 16.5 11.0049 15.8284 11.0049 15C11.0049 14.1715 10.3333 13.5 9.50488 13.5C8.67646 13.5 8.00488 14.1715 8.00488 15C8.00488 15.8284 8.67646 16.5 9.50488 16.5Z" fill="currentColor"/>
</svg>

<svg width="24" height="24" fill="none" xmlns="http://www.w3.org/2000/svg"><path d="M11.005 21a1.5 1.5 0 1 0-3 0h-5a1 1 0 0 1-1-1V4a1 1 0 0 1 1-1h5a1.5 1.5 0 0 0 3 0h10a1 1 0 0 1 1 1v5.5a2.5 2.5 0 0 0 0 5V20a1 1 0 0 1-1 1h-10Zm-1.5-10.5a1.5 1.5 0 1 0 0-3 1.5 1.5 0 0 0 0 3Zm0 6a1.5 1.5 0 1 0 0-3 1.5 1.5 0 0 0 0 3Z" fill="currentColor"/></svg>
